X:1
T: The Source of the Nith
C:Bruce Shawyer
R:Strathspey
Q:128
K:A
M:4/4
L:1/16
|:e2d2|c4 A3B A4 c2e2|f3e d2f2 e4 e2d2|c4 A3B A4 B2c2|d2c2 B2A2 B4 e2d2|
c4 A3B A4 c2e2|f3e d2f2 e4 f2g2|a4 c4 d2c2 B2A2|B6A2 A6e2|
a3g f2e2 f3e d2c2|d3c B2A2 B6e2|a3g f2a2 g2e2 c2c2|d3c B2A2 B6e2|
a3g f2e2 f3e d2c2|d3c B2A2 B6E2|A3B c2A2 B3c d2c2|B6A2 A4:|
